svg/24/mobile--filled.svg

<svg width="24" height="24" viewBox="0 0 24 24" fill="currentColor" xmlns="http://www.w3.org/2000/svg"><path fill-rule="evenodd" clip-rule="evenodd" d="M6 20C6 21.1046 6.89543 22 8 22H16C17.1046 22 18 21.1046 18 20L18 4C18 2.89543 17.1046 2 16 2H8C6.89543 2 6 2.89543 6 4V20ZM13.25 19C13.6642 19 14 18.6642 14 18.25C14 17.8358 13.6642 17.5 13.25 17.5H10.75C10.3358 17.5 10 17.8358 10 18.25C10 18.6642 10.3358 19 10.75 19H13.25Z"/></svg>

<svg xmlns="http://www.w3.org/2000/svg" width="24" height="24" fill="currentColor" viewBox="0 0 24 24">
  <path fill-rule="evenodd" d="M6 20a2 2 0 0 0 2 2h8a2 2 0 0 0 2-2V4a2 2 0 0 0-2-2H8a2 2 0 0 0-2 2v16Zm7.25-1a.75.75 0 0 0 0-1.5h-2.5a.75.75 0 0 0 0 1.5h2.5Z" clip-rule="evenodd"/>
</svg>
